!!!COM:	W.A. Mozart
!!!OTL:	Quartet No.2
**kern	**kern	**kern	**kern	**dynam
*part4	*part3	*part2	*part1	*part1
*staff4	*staff3	*staff2	*staff1	*
*I"Cello	*I"Viola	*I"Violin II	*I"Violin I	*
*I'Vc.	*I'Vla.	*I'Vln. II	*I'Vln. I	*
*clefF4	*clefC3	*clefG2	*clefG2	*
*k[f#c#g#]	*k[f#c#g#]	*k[f#c#g#]	*k[f#c#g#]	*
*A:	*A:	*A:	*A:	*
*M3/4	*M3/4	*M3/4	*M3/4	*
=1	=1	=1	=1	=1
8AAL	[4e	[4c#	[4ee	.
8AA	.	.	.	.
8AA	(16eLL]	(16c#LL]	(16eeLL]	.
.	16d	16B	16dd	.
8AA	16c#	16A	16cc#	.
.	16dJJ	16BJJ	16ddJJ	.
8AA	16eLL	16c#LL	16eeLL	.
.	16f#	16d	16ff#	.
8AAJ	16g#	16B	16gg#	.
.	16aJJ)	16c#JJ)	16aaJJ)	.
=2	=2	=2	=2	=2
8r	(2a	(2c#	(2aa	.
8EL	.	.	.	.
8E	.	.	.	.
8E	.	.	.	.
8E	8g#)	8B)	8gg#)	.
8EJ	8r	8r	8r	.
=3	=3	=3	=3	=3
8EEL	[4d	[4B	[4dd	.
8EE	.	.	.	.
8EE	(16dLL]	(16BLL]	(16ddLL]	.
.	16c#	16A	16cc#	.
8EE	16B	16G#	16b	.
.	16c#JJ	16AJJ	16cc#JJ	.
8EE	16dLL	16BLL	16ddLL	.
.	16f#	16d	16ff#	.
8EEJ	16e	16c#	16ee	.
.	16dJJ)	16BJJ)	16ddJJ)	.
=4	=4	=4	=4	=4
8r	(2d	(2B	(2dd	.
8AAL	.	.	.	.
8AA	.	.	.	.
8AA	.	.	.	.
8AA	8c#)	8A)	8cc#)	.
8AAJ	8r	8r	8r	.
=5	=5	=5	=5	=5
8DL	8dL	8f#L	[4b	.
8D	8d	8f#	.	.
8D	8d	8f#	(16bLL]	.
.	.	.	16cc#	.
8D	8d	8f#	16dd	.
.	.	.	16eeJJ	.
8D	8d	8f#	16ff#LL	.
.	.	.	16gg#	.
8DJ	8dJ	8f#J	16aa	.
.	.	.	16bbJJ)	.
=6	=6	=6	=6	=6
8EL	8eL	8BL	(4aa	.
8E	8e	8B	.	.
8D	8e	8B	4gg#	.
8DJ	8e	8B	.	.
4C#	8e	8A	4aa)	.
.	8eJ	8AJ	.	.
=7	=7	=7	=7	=7
2.r	2.r	(8BL	(8ddL	.
.	.	8A	8cc#J	.
.	.	8d	8ff#L	.
.	.	8c#	8eeJ	.
.	.	8B	8ddL	.
.	.	8AJ)	8cc#J)	.
=8	=8	=8	=8	=8
.	.	16qqB/	16qqdd/	.
8r	4r	(8AL	(8cc#L	.
8EL	.	16G#L	16bL	.
.	.	16AJJ)	16cc#JJ)	.
8E	8r	8G#L	8eL 8b	.
8EJ	8eL	8G#J	8eJ 8b	.
8EE	8B	8G#	8e 8b	.
8r	8G#J	8r	8r	.
=9	=9	=9	=9	=9
(4G#	4E	8b'L	2.r	.
.	.	(16bL	.	.
.	.	16cc#JJ)	.	.
4F#	4r	8a'L	.	.
.	.	(16aL	.	.
.	.	16bJJ)	.	.
4E)	(4e	8g#'	.	.
.	.	8r	.	.
=10	=10	=10	=10	=10
(4F#	(4d#X	2.r	8aaL	.
.	.	.	(16aaL	p
.	.	.	16bbJJ)	.
4E	4e	.	8gg#L	.
.	.	.	(16gg#L	.
.	.	.	16aaJJ)	.
4D#X)	4B	.	8ff#	.
.	.	.	8r	.
=11	=11	=11	=11	=11
(4G#	(4B	(24bLL	2.r	.
.	.	24dd#X	.	.
.	.	24eeJJ	.	.
.	.	24gg#LL	.	.
.	.	24bb	.	.
.	.	24gg#JJ	.	.
4F#	4d#X)	24aaLL	.	.
.	.	24ff#	.	.
.	.	24dd#JJ	.	.
.	.	24bLL	.	.
.	.	24cc#	.	.
.	.	24aJJ	.	.
4E)	4e	8g#)	.	.
.	.	8r	.	.
=12	=12	=12	=12	=12
(4F#	(4d#X	2.r	(24aLL	.
.	.	.	24b	.
.	.	.	24dd#X	.
.	.	.	24ff#	.
.	.	.	24aa	.
.	.	.	24ff#JJ	.
4E	4e	.	24gg#LL	.
.	.	.	24ee	.
.	.	.	24gg#	.
.	.	.	24bb	.
.	.	.	24gg#	.
.	.	.	24bbJJ	.
4D#X)	4B)	.	8ff#)	.
.	.	.	8r	.
=13	=13	=13	=13	=13
8E'L	(16BLL	(16eLL	(16gg#LL	.
.	16A	16f#	16aa	.
8E'	16G#	16g#	16bb	.
.	16AJJ)	16f#J)	16aaJ)	.
8E'J	4B	8eJ	8gg#J	.
8r	.	8d'L	8ff#'L	.
4r	4r	8c#'	8ee'	.
.	.	8B'J	8ddn'J	.
=14	=14	=14	=14	=14
8AAL	(16c#LL	(16ALL	(16cc#LL	.
!	!	!	!	!
.	16d#X	16B	16dd#X	.
8AA	16e	16c#	16ee	.
.	16d#JJ)	16BJ	16dd#J	.
8AAJ	4c#	8AJ)	8cc#J)	.
8r	.	8g#'L	8b'L	.
4r	4r	8f#'	8a'	.
.	.	8e'J	8g#'J	.
=15	=15	=15	=15	=15
2.BB	(4A	(4d#X	(4f#	.
!	!	!	!	!
.	4F#	4f#)	4a)	.
.	.	16qqg#/	16qqb/	.
.	4B)	(8f#L	(8aL	.
.	.	16eL	16g#L	.
.	.	16d#JJ)	16f#JJ)	.
=16	=16	=16	=16	=16
4E	4B	(16eLL	(16g#LL	.
.	.	16f#	16a	.
.	.	16g#	16b	.
.	.	16aJJ)	16cc#JJ)	.
4EE	4E	8g#'L	8b'L	.
.	.	8g#'J	8b'J	.
4E	4e	4g#t	4bT	.
=17	=17	=17	=17	=17
4AA	4E	(16c#tLL	(16cc#tLL	.
.	.	16B#X	16b#X	.
.	.	16c#	16cc#	.
.	.	16d#XJJ)	16dd#XJJ)	.
4r	4r	(16eTLL	(16eeTLL	.
.	.	16d#	16dd#	.
.	.	16e	16ee	.
.	.	16e#XJJ)	16ee#XJJ)	.
4r	4r	(16f#TLL	(16ff#TLL	.
.	.	16e#	16ee#	.
.	.	16f#	16ff#	.
.	.	16g#JJ)	16gg#JJ)	.
=18	=18	=18	=18	=18
[2EE	2.r	(16aTLL	(16aaTLL	.
.	.	16g#	16gg#	.
.	.	16a	16aa	.
.	.	16bJJ)	16bbJJ)	.
.	.	(16cc#tLL	(16ccc#tLL	.
.	.	16b	16bb	.
.	.	16cc#	16ccc#	.
.	.	16dd#XJJ)	16ddd#XJJ)	.
8EE]	.	8ee	8eee	.
8r	.	8r	8r	.
=19	=19	=19	=19	=19
4BB	4.g#	4.b 4.ee	4.b 4.gg#	.
4BB	.	.	.	.
.	16f#LL	16ff#LL	16aaLL	.
.	16eJJ	16gg#JJ	16bbJJ	.
.	.	16qqgg#/	16qqbb/	.
4BB	(16d#XLL	(8ff#L	(8aaL	.
.	16f#	.	.	.
.	16g#	16eeL	16gg#L	.
.	16aJJ)	16dd#XJJ)	16ff#JJ)	.
=20	=20	=20	=20	=20
[2EE	(2a	(2dd#X	(2ff#	.
8EE]	8g#)	8ee)	8ee)	.
8r	8r	8r	8r	.
=21:|!|:	=21:|!|:	=21:|!|:	=21:|!|:	=21:|!|:
2.r	2.r	2.r	8cc#	.
.	.	.	(4cc#	.
.	.	.	16ddTLL	.
.	.	.	32cc#L	.
.	.	.	32ddJJJ)	.
.	.	.	8ee'L	.
.	.	.	8ff#'J	.
=22	=22	=22	=22	=22
4F#	(4a#X	(4c#	(4ee	.
4BB	4b)	4B)	8ddL)	.
.	.	.	8cc#	.
4r	4r	4r	8b	.
.	.	.	8cc#J	.
=23	=23	=23	=23	=23
2.r	2.r	2.r	8b	.
.	.	.	(4b	.
.	.	.	16cc#tLL	.
.	.	.	32bL	.
.	.	.	32cc#JJJ)	.
.	.	.	8dd'L	.
.	.	.	8ee'J	.
=24	=24	=24	=24	=24
4E	(4g#	(4B	(4dd	.
4AA	4a)	4A)	8cc#L)	.
.	.	.	8b	.
4r	4r	4r	8a	.
.	.	.	8bJ	.
=25	=25	=25	=25	=25
8AL	8AL	8eL	4ccn	.
8A	8A	8e	.	.
.	.	.	16qqdd/	.
8A	8A	8e	8ccL	.
8A	8A	8e	16bL	.
.	.	.	16aJJ	.
8A	8A	8cn	8eeL	.
8AJ	8AJ	8cJ	8eeJ	.
=26	=26	=26	=26	=26
8FnL	8cnL	8aL	(8eeL	.
8F	8c	8a	8dd#XJ)	.
8F	8c	8a	[2dd#	.
8F	8c	8a	.	.
8F	8c	8a	.	.
8FJ	8cJ	8aJ	.	.
=27	=27	=27	=27	=27
4Fn	4cn	4a	8dd#L]	.
.	.	.	(8cccn	p
4r	4r	8r	8bb	.
.	.	(8a	8ccc	.
4D#X	4f#	8bL	8bb	.
.	.	8ccnJ)	8aaJ)	.
=28	=28	=28	=28	=28
.	.	16qqccn/	16qqaa/	p
4E	8r	8bL	8gg#L	.
.	8BL	16aL	16ff#L	.
.	.	16g#JJ	16eeJJ	.
4E	8B	8g#L	8eeL	.
.	8BJ	8g#J	8eeJ	.
4E	4B	8g#t	8eeT	.
.	.	8r	8r	.
=29	=29	=29	=29	=29
8DL	8dL	8f#L	[4b	.
8D	8d	8f#	.	.
8D	8d	8f#	(16bLL]	.
.	.	.	16cc#	.
8D	8d	8f#	16dd	.
.	.	.	16eeJJ	.
8D	8B	8d	16ff#LL	.
.	.	.	16gg#	.
8DJ	8BJ	8dJ	16aa	.
.	.	.	16bbJJ)	.
=30	=30	=30	=30	=30
8EL	8eL	8c#L	(4aa	.
8E	8e	8c#	.	.
8D	8e	8B	4gg#	.
8DJ	8e	8B	.	.
4C#	8e	8A	4aa)	.
.	8eJ	8BJ	.	.
=31	=31	=31	=31	=31
2.r	2.r	(8BL	(8ddL	.
.	.	8A	8cc#	.
.	.	8d	8ff#	.
.	.	8c#	8ee	.
.	.	8B	8dd	.
.	.	8AJ)	8cc#J)	.
=32	=32	=32	=32	=32
.	.	16qqB/	16qqdd/	.
8r	4r	8AL	8cc#L	.
8EL	.	16G#L	16bL	.
.	.	16AJJ	16cc#JJ	.
8E	8r	8G#L	8eL 8b	.
8EJ	8EL	8G#J	8eJ 8b	.
8EE	8B	8G#	8e 8b	.
8r	8dJ	8r	8r	.
=33	=33	=33	=33	=33
(4c#	4c#X	8e'L	2.r	.
.	.	(16eL	.	.
.	.	16f#JJ)	.	.
4B	4r	8d'L	.	.
.	.	(16dL	.	.
.	.	16eJJ)	.	.
4A)	(4a	8c#'	.	.
.	.	8r	.	.
=34	=34	=34	=34	=34
(4B	4g#)	2.r	8dd'L	.
.	.	.	(16ddL	p
.	.	.	16eeJJ)	.
4A	4a	.	8cc#'L	.
.	.	.	(16cc#L	.
.	.	.	16ddJJ)	.
4G#)	4e	.	8b'	.
.	.	.	8r	.
=35	=35	=35	=35	=35
(4C#	(4A	(24eeLL	2.r	.
.	.	24ff#	.	.
.	.	24gg#	.	.
.	.	24aa	.	.
.	.	24bb	.	.
.	.	24ccc#JJ)	.	.
4BB	4G#	(24dddLL	.	.
.	.	24bb	.	.
.	.	24gg#	.	.
.	.	24ee	.	.
.	.	24ff#	.	.
.	.	24ddJJ)	.	.
4AA)	4A)	8cc#	.	.
.	.	8r	.	.
=36	=36	=36	=36	=36
(4BB	(4G#	2.r	(24eeLL	.
.	.	.	24gg#	.
.	.	.	24aaJJ	.
.	.	.	24bbLL	.
.	.	.	24ccc#	.
.	.	.	24dddJJ	.
4AA	4A	.	24ccc#LL)	.
.	.	.	(24gg#	.
.	.	.	24aaJJ)	.
.	.	.	(24dd#XLL	.
.	.	.	24ee)	.
.	.	.	24cc#JJ)	.
4GG#)	4E)	.	8b'	.
.	.	.	8r	.
=37	=37	=37	=37	=37
8AAL	(16eLL	(16c#LL	(16aLL	.
.	16d	16d	16b	.
8AA	16c#	16e	16cc#	.
.	16dJJ)	16dJ	16bJ	.
8AAJ	4e	8c#J)	8aJ)	.
8r	.	8e'L	8gg#'L	.
4r	4r	8d'	8ff#'	.
.	.	8c#'J	8ee#X'J	.
=38	=38	=38	=38	=38
8D'L	(16ALL	(16dLL	(16ff#LL	.
.	16G#	16e	16gg#	.
8D'	16F#	16f#	16aa	.
.	16G#JJ)	16eJ	16gg#J	.
8D'J	4A	8dJ)	8ff#J)	.
8r	.	8c#'L	8ee'L	.
4r	4r	8B'	8dd'	.
.	.	8A'J	8cc#'J	.
=39	=39	=39	=39	=39
2.E	[2.E	(4G#	(4b	.
.	.	4B)	4dd)	.
.	.	16qqc#/	16qqee/	.
.	.	(8BL	(8ddL	.
.	.	16AL	16cc#L	.
.	.	16G#JJ)	16bJJ)	.
=40	=40	=40	=40	=40
4AA	4E]	(16ALL	(16cc#LL	.
.	.	16B	16dd	.
.	.	16c#	16ee	.
.	.	16dJJ)	16ff#JJ)	.
4A	8AL	8c#'L	8ee'L	.
.	8AJ	8c#'	8ee'J	.
4AA	4A	8c#tJ	8eeT	.
.	.	8r	8r	.
=41	=41	=41	=41	=41
4D	4F#	(16BTLL	(16bTLL	.
.	.	16A#X	16a#X	.
.	.	16B	16b	.
.	.	16c#JJ)	16cc#JJ)	.
4r	4r	(16dTLL	(16ddTLL	.
.	.	16c#	16cc#	.
.	.	16d	16dd	.
.	.	16e#XJJ)	16ee#XJJ)	.
4r	4r	(16f#TLL	(16ff#TLL	.
.	.	16e#	16ee#	.
.	.	16f#	16ff#	.
.	.	16a#XJJ)	16aa#XJJ)	.
=42	=42	=42	=42	=42
4D	2.r	(16bTLL	(16bbTLL	.
.	.	16a#X	16aa#X	.
.	.	16b	16bb	.
.	.	16cc#JJ)	16ccc#JJ)	.
4r	.	(16ddTLL	(16dddTLL	.
.	.	16cc#	16ccc#	.
.	.	16dd	16ddd	.
.	.	16eeJJ)	16eeeJJ)	.
4r	.	8ff#'	8fff#'	.
.	.	8r	8r	.
=43	=43	=43	=43	=43
4E	8eL	4.e 4.a	4.e 4.cc#	.
.	8e	.	.	.
4E	8e	.	.	.
.	8e	16bLL	16ddLL	.
.	.	16cc#JJ	16eeJJ	.
.	.	16qqcc#/	16qqee/	.
4E	8e	8bL	8ddL	.
.	8eJ	16aL	16cc#L	.
.	.	16g#JJ	16bJJ	.
=44	=44	=44	=44	=44
8AAL	(2d	(2g#	(2b	.
8AA	.	.	.	.
8AA	.	.	.	.
8AAJ	.	.	.	.
8AA	8c#)	8a)	8cc#)	.
8r	8r	8r	8r	.
=45	=45	=45	=45	=45
[4C#	[4e	8AL	[4ee	.
.	.	8A	.	.
(16C#LL]	(16eLL]	8A	(16eeLL]	.
16BB	16d	.	16dd	.
16AA	16c#	8A	16cc#	.
16BBJJ	16dJJ	.	16ddJJ	.
16C#LL	16eLL	8A	16eeLL	.
16D	16f#	.	16ff#	.
16E	16g#	8AJ	16gg#	.
16F#JJ)	16aJJ)	.	16aaJJ)	.
=46	=46	=46	=46	=46
8F#L	8BL	(2d#X	(2aa	.
8F#	8B	.	.	.
8F#	8B	.	.	.
8F#	8B	.	.	.
8E	8B	8e)	8gg#)	.
8EJ	8BJ	8r	8r	.
=47	=47	=47	=47	=47
8DL	[4B	[4g#	[4dd	.
8E	.	.	.	.
8E	(16BLL]	(16g#LL]	(16ddLL]	.
.	16A	16a	16cc#	.
8E	16G#	16b	16b	.
.	16AJJ)	16aJJ)	16cc#JJ	.
8E	8B'L	8g#'L	16ddLL	.
.	.	.	16ff#	.
8EJ	8B'J	8g#'J	16ee	.
.	.	.	16ddJJ)	.
=48	=48	=48	=48	=48
8E#XL	2B	(2g#	(2dd	.
8E#	.	.	.	.
8E#	.	.	.	.
8E#J	.	.	.	.
8F#	8A	8a)	8cc#)	.
8r	8r	8r	8r	.
=49	=49	=49	=49	=49
.	.	.	16qqee/	p
8EL	(4E	(4G#	4dd	.
8E	.	.	.	.
.	.	.	16qqcc#/	.
8E	4G#	4B	4b	.
8E	.	.	.	.
.	.	.	16qqa/	.
8E	4B)	4d)	4g#	.
8EJ	.	.	.	.
=50	=50	=50	=50	=50
[2AA	(2G#	(2d	(2b	.
8AA]	8A)	8cn)	8a)	.
8r	8r	8r	8r	.
=:|!	=:|!	=:|!	=:|!	=:|!
*-	*-	*-	*-	*-
!!!system-decoration: [(s1,s2,s3,s4)]
